gy/si-glyph-gas-station.svg

<svg viewBox="0 0 17 17" xmlns="http://www.w3.org/2000/svg" class="si-glyph si-glyph-gas-station" height="1em" width="1em">
  <path d="M16.475.07h-1.486l-1.988 2.335v8.927c0 .751-1 .793-1 .043L12 8.148c.005-.094.027-.934-.582-1.574-.368-.385-.822-.539-1.446-.585V.053L2 0v14.018h-.001a.012.012 0 0 0-.008.003H1v1.938h9.979v-1.938l-.991.054c-.006 0-.009-.003-.009-.003H9.97V7.006c.323.039.543.073.715.253.327.336.316.842.314.867v3.25c0 1.082.729 1.604 1.562 1.604.875 0 1.438-.604 1.438-1.647V2.959h.984v-.984l.373-1.023h1.037c.268 0 .563-.134.563-.399a.482.482 0 0 0-.481-.483ZM2.958.939h6.073v5.092H2.958V.939Zm6.125 6.977V9H6.958V7.916h2.125ZM2.958 8H5.02v1H2.958V8Z" fill="#434343" class="si-glyph-fill" fill-rule="evenodd"/>
</svg>

<svg viewBox="0 0 17 17" version="1.1" xmlns="http://www.w3.org/2000/svg" class="si-glyph si-glyph-gas-station" height="1em" width="1em">
  <g stroke="none" stroke-width="1" fill="none" fill-rule="evenodd">
    <path d="M16.475,0.07 L14.989,0.07 L13.001,2.405 L13.001,11.332 C13.001,12.083 12.001,12.125 12.001,11.375 L12,8.148 C12.005,8.054 12.027,7.214 11.418,6.574 C11.05,6.189 10.596,6.035 9.972,5.989 L9.972,0.053 L2,0 L2,14.018 L1.999,14.018 C1.994,14.018 1.991,14.021 1.991,14.021 L1,14.021 L1,15.959 L1.062,15.959 L10.958,15.959 L10.979,15.959 L10.979,14.021 L9.988,14.075 C9.982,14.075 9.979,14.072 9.979,14.072 L9.97,14.072 L9.97,7.006 C10.293,7.045 10.513,7.079 10.685,7.259 C11.012,7.595 11.001,8.101 10.999,8.126 L10.999,11.376 C10.999,12.458 11.728,12.98 12.561,12.98 C13.436,12.98 13.999,12.376 13.999,11.333 L13.999,2.959 L14.983,2.959 L14.983,1.975 L15.356,0.952 L16.393,0.952 C16.661,0.952 16.956,0.818 16.956,0.553 C16.956,0.288 16.742,0.07 16.475,0.07 L16.475,0.07 Z M2.958,0.939 L9.031,0.939 L9.031,6.031 L2.958,6.031 L2.958,0.939 L2.958,0.939 Z M9.083,7.916 L9.083,9 L6.958,9 L6.958,7.916 L9.083,7.916 L9.083,7.916 Z M2.958,8 L5.02,8 L5.02,9 L2.958,9 L2.958,8 L2.958,8 Z" fill="#434343" class="si-glyph-fill"/>
  </g>
</svg>
